src/topics/icons/freedomdefined.svg

<svg height="256" preserveAspectRatio="xMidYMid" viewBox="0 0 256 256" width="256" xmlns="http://www.w3.org/2000/svg" xmlns:xlink="http://www.w3.org/1999/xlink"><linearGradient id="a" x1="0%" x2="50%" y1="0%" y2="50%"><stop offset="0" stop-color="#ff5959"/><stop offset="1" stop-color="#df0000"/></linearGradient><linearGradient id="b" x1=".846605%" x2="50.039987%" y1="99.193392%" y2="50%"><stop offset="0" stop-color="#ffb73d"/><stop offset="1" stop-color="#ffa000"/></linearGradient><linearGradient id="c" x1="92.818676%" x2="50%" y1="92.818676%" y2="50%"><stop offset="0" stop-color="#fff18d"/><stop offset="1" stop-color="#ffcd01"/></linearGradient><linearGradient id="d" x1="82.170851%" x2="4.076231%" y1="82.170851%" y2="4.07623%"><stop offset="0" stop-color="#fff"/><stop offset="1" stop-color="#fff" stop-opacity="0"/></linearGradient><linearGradient id="e" x1="2.904355%" x2="50%" y1="97.095649%" y2="50%"><stop offset="0" stop-color="#00a000" stop-opacity=".258929"/><stop offset="1" stop-color="#008000"/></linearGradient><linearGradient id="f" x1="0%" x2="100%" y1="50%" y2="50%"><stop offset="0" stop-color="#263cce"/><stop offset="1" stop-color="#263cce" stop-opacity="0"/></linearGradient><linearGradient id="g" x1="50%" x2="-42.782531%" y1="50%" y2="-3.568026%"><stop offset="0" stop-color="#652f99"/><stop offset="1" stop-color="#502679" stop-opacity=".651786"/></linearGradient><path d="m255.410135 127.410191c0 70.366679-57.043464 127.410142-127.410142 127.410142-70.3666784 0-127.41014187-57.043463-127.41014187-127.410142 0-70.3666779 57.04346347-127.41014145 127.41014187-127.41014145v127.41014145z" fill="url(#a)"/><path d="m127.999994 236.618916c-60.3143059 0-109.2087116-48.894406-109.2087116-109.208712 0-60.3143057 48.8944057-109.2087114 109.2087116-109.2087114 60.314306 0 109.208712 48.8944057 109.208712 109.2087114h-109.208712z" fill="url(#b)"/><path d="m219.007588 127.410309c0 50.261886-40.745308 91.007195-91.007194 91.007195-50.2618855 0-91.0071942-40.745309-91.0071942-91.007195 0-50.2618852 40.7453087-91.0071939 91.0071942-91.0071939v91.0071939z" fill="url(#c)" transform="matrix(-1 0 0 -1 256.000788 254.820618)"/><path d="m127.999785 54.6049463c40.209489 0 72.805721 32.5962313 72.805721 72.8057207 0 40.209489-32.596232 72.80572-72.805721 72.80572-40.2094888 0-72.8057202-32.596231-72.8057202-72.80572h72.8057202z" fill="url(#d)"/><path d="m182.604523 127.410156c0 30.157141-24.447193 54.604334-54.604334 54.604334-30.1571412 0-54.6043343-24.447193-54.6043343-54.604334s24.4471931-54.6043341 54.6043343-54.6043341v54.6043341z" fill="url(#e)"/><path d="m128.000378 164.540978c-20.104745 0-36.4028607-16.298116-36.4028607-36.402861 0-20.104744 16.2981157-36.4028599 36.4028607-36.4028599 20.104744 0 36.40286 16.2981159 36.40286 36.4028599h-36.40286z" fill="url(#f)"/><path d="m146.201562 127.410445c0 6.502745-3.469173 12.511529-9.100715 15.762901-5.631542 3.251373-12.569888 3.251373-18.20143 0-5.631542-3.251372-9.100715-9.260156-9.100715-15.762901s3.469173-12.511529 9.100715-15.762901c5.631542-3.251373 12.569888-3.251373 18.20143 0 5.631542 3.251372 9.100715 9.260156 9.100715 15.762901z" fill="url(#g)" transform="matrix(-1 0 0 -1 256.000264 254.82089)"/></svg>

<?xml version="1.0" encoding="UTF-8" standalone="no"?>
<svg width="256px" height="256px" viewBox="0 0 256 256" version="1.1" xmlns="http://www.w3.org/2000/svg" xmlns:xlink="http://www.w3.org/1999/xlink" preserveAspectRatio="xMidYMid">
    <defs>
        <linearGradient x1="0%" y1="-1.92038577e-14%" x2="50%" y2="50%" id="linearGradient-1">
            <stop stop-color="#FF5959" offset="0%"></stop>
            <stop stop-color="#DF0000" offset="100%"></stop>
        </linearGradient>
        <linearGradient x1="0.846605405%" y1="99.1933919%" x2="50.0399865%" y2="50%" id="linearGradient-2">
            <stop stop-color="#FFB73D" offset="0%"></stop>
            <stop stop-color="#FFA000" offset="100%"></stop>
        </linearGradient>
        <linearGradient x1="92.8186757%" y1="92.8186757%" x2="50%" y2="50%" id="linearGradient-3">
            <stop stop-color="#FFF18D" offset="0%"></stop>
            <stop stop-color="#FFCD01" offset="100%"></stop>
        </linearGradient>
        <linearGradient x1="82.1708514%" y1="82.1708514%" x2="4.07623108%" y2="4.07622973%" id="linearGradient-4">
            <stop stop-color="#FFFFFF" offset="0%"></stop>
            <stop stop-color="#FFFFFF" stop-opacity="0" offset="100%"></stop>
        </linearGradient>
        <linearGradient x1="2.90435541%" y1="97.0956486%" x2="50%" y2="50%" id="linearGradient-5">
            <stop stop-color="#00A000" stop-opacity="0.25892857" offset="0%"></stop>
            <stop stop-color="#008000" offset="100%"></stop>
        </linearGradient>
        <linearGradient x1="0%" y1="50%" x2="100%" y2="50%" id="linearGradient-6">
            <stop stop-color="#263CCE" offset="0%"></stop>
            <stop stop-color="#263CCE" stop-opacity="0" offset="100%"></stop>
        </linearGradient>
        <linearGradient x1="50%" y1="50%" x2="-42.7825311%" y2="-3.5680259%" id="linearGradient-7">
            <stop stop-color="#652F99" offset="0%"></stop>
            <stop stop-color="#502679" stop-opacity="0.65178573" offset="100%"></stop>
        </linearGradient>
    </defs>
	<g>
		<path d="M255.410135,127.410191 C255.410135,197.77687 198.366671,254.820333 127.999993,254.820333 C57.6333146,254.820333 0.589851134,197.77687 0.589851134,127.410191 C0.589851134,57.0435131 57.6333146,4.95483871e-05 127.999993,4.95483871e-05 L127.999993,127.410191 L255.410135,127.410191 Z" fill="url(#linearGradient-1)"></path>
		<path d="M127.999994,236.618916 C67.6856881,236.618916 18.7912824,187.72451 18.7912824,127.410204 C18.7912824,67.0958983 67.6856881,18.2014926 127.999994,18.2014926 C188.3143,18.2014926 237.208706,67.0958983 237.208706,127.410204 L127.999994,127.410204 L127.999994,236.618916 L127.999994,236.618916 Z" fill="url(#linearGradient-2)"></path>
		<path d="M219.007588,127.410309 C219.007588,177.672195 178.26228,218.417504 128.000394,218.417504 C77.7385085,218.417504 36.9931998,177.672195 36.9931998,127.410309 C36.9931998,77.1484238 77.7385085,36.4031151 128.000394,36.4031151 L128.000394,127.410309 L219.007588,127.410309 Z" fill="url(#linearGradient-3)" transform="translate(128.000394, 127.410309) scale(-1, -1) translate(-128.000394, -127.410309) "></path>
		<path d="M127.999785,54.6049463 C168.209274,54.6049463 200.805506,87.2011776 200.805506,127.410667 C200.805506,167.620156 168.209274,200.216387 127.999785,200.216387 C87.7902962,200.216387 55.1940648,167.620156 55.1940648,127.410667 L127.999785,127.410667 L127.999785,54.6049463 L127.999785,54.6049463 Z" fill="url(#linearGradient-4)"></path>
		<path d="M182.604523,127.410156 C182.604523,157.567297 158.15733,182.01449 128.000189,182.01449 C97.8430478,182.01449 73.3958547,157.567297 73.3958547,127.410156 C73.3958547,97.253015 97.8430478,72.8058219 128.000189,72.8058219 L128.000189,127.410156 L182.604523,127.410156 Z" fill="url(#linearGradient-5)"></path>
		<path d="M128.000378,164.540978 C107.895633,164.540978 91.5975173,148.242862 91.5975173,128.138117 C91.5975173,108.033373 107.895633,91.7352571 128.000378,91.7352571 C148.105122,91.7352571 164.403238,108.033373 164.403238,128.138117 L128.000378,128.138117 L128.000378,164.540978 L128.000378,164.540978 Z" fill="url(#linearGradient-6)"></path>
		<path d="M146.201562,127.410445 C146.201562,133.91319 142.732389,139.921974 137.100847,143.173346 C131.469305,146.424719 124.530959,146.424719 118.899417,143.173346 C113.267875,139.921974 109.798702,133.91319 109.798702,127.410445 C109.798702,120.9077 113.267875,114.898916 118.899417,111.647544 C124.530959,108.396171 131.469305,108.396171 137.100847,111.647544 C142.732389,114.898916 146.201562,120.9077 146.201562,127.410445 L146.201562,127.410445 Z" fill="url(#linearGradient-7)" transform="translate(128.000132, 127.410445) scale(-1, -1) translate(-128.000132, -127.410445) "></path>
	</g>
</svg>
